X:1
L:1/8
Q:3/8=100
M:6/8
K:Bb
 F |S B2 B BAB | c2 d e2 c |{ef} g3 fdB | BAB cAF | B2 B BAB | c2 d e2 c |{ef} g3 fdB | 
 cBc B2!fine! :| F/G/ | ABc cde | edc c2 f | b2 f b2 f | dcB cAF | ABc cde | edc fga | bg=e cde | 
 fg_e dec!D.S.! |]
